static/images/icons/lock.svg

<svg width="650" height="650" fill="none" xmlns="http://www.w3.org/2000/svg"><path d="M0 325C0 81.25 81.25 0 325 0s325 81.25 325 325-81.25 325-325 325S0 568.75 0 325z" fill="#266DD3"/><g clip-path="url(#clip0)"><path d="M395.833 293.281v-67.448C395.833 186.719 364.128 155 325 155c-39.143 0-70.833 31.719-70.833 70.833v67.448c-25.883 20.768-42.5 52.615-42.5 88.386C211.667 444.255 262.411 495 325 495c62.588 0 113.333-50.745 113.333-113.333 0-35.771-16.617-67.618-42.5-88.386zM282.5 225.833c0-23.431 19.068-42.5 42.5-42.5 23.431 0 42.5 19.069 42.5 42.5v50.816c-13.133-5.326-27.455-8.316-42.5-8.316-15.045 0-29.368 2.99-42.5 8.316v-50.816zM325 466.667c-46.878 0-85-38.123-85-85 0-46.878 38.122-85 85-85 46.877 0 85 38.122 85 85 0 46.877-38.123 85-85 85zm28.333-99.167c0 10.455-5.723 19.493-14.167 24.409v32.258h-28.333v-32.258c-8.443-4.916-14.166-13.94-14.166-24.409 0-15.64 12.693-28.333 28.333-28.333 15.64 0 28.333 12.693 28.333 28.333z" fill="#fff"/></g><defs><clipPath id="clip0"><path fill="#fff" transform="translate(155 155)" d="M0 0h340v340H0z"/></clipPath></defs></svg>

<svg width="650" height="650" viewBox="0 0 650 650" fill="none" xmlns="http://www.w3.org/2000/svg">
<path d="M0 325C0 81.25 81.25 0 325 0C568.75 0 650 81.25 650 325C650 568.75 568.75 650 325 650C81.25 650 0 568.75 0 325Z" fill="#266DD3"/>
<g clip-path="url(#clip0)">
<path d="M395.833 293.281V225.833C395.833 186.719 364.128 155 325 155C285.857 155 254.167 186.719 254.167 225.833V293.281C228.284 314.049 211.667 345.896 211.667 381.667C211.667 444.255 262.411 495 325 495C387.588 495 438.333 444.255 438.333 381.667C438.333 345.896 421.716 314.049 395.833 293.281ZM282.5 225.833C282.5 202.402 301.568 183.333 325 183.333C348.431 183.333 367.5 202.402 367.5 225.833V276.649C354.367 271.323 340.045 268.333 325 268.333C309.955 268.333 295.632 271.323 282.5 276.649V225.833V225.833ZM325 466.667C278.122 466.667 240 428.544 240 381.667C240 334.789 278.122 296.667 325 296.667C371.877 296.667 410 334.789 410 381.667C410 428.544 371.877 466.667 325 466.667ZM353.333 367.5C353.333 377.955 347.61 386.993 339.166 391.909V424.167H310.833V391.909C302.39 386.993 296.667 377.969 296.667 367.5C296.667 351.86 309.36 339.167 325 339.167C340.64 339.167 353.333 351.86 353.333 367.5V367.5Z" fill="white"/>
</g>
<defs>
<clipPath id="clip0">
<rect width="340" height="340" fill="white" transform="translate(155 155)"/>
</clipPath>
</defs>
</svg>
